X:1
T:Once in our lives
T:Henry Purcell
%%score [ 1 2 3 ]
L:1/8
Q:1/4=60
M:4/4
K:G
V:1 treble nm="I"
V:2 treble nm="II"
V:3 treble nm="III"
V:1
 A2 A E =F2 F E | (DE) =F D E2 F ^G | (AB) (cA) (Bc) (dB) | !fermata!c8 :| %4
w: Once in our lives, let us|drink _ to our Wives, tho' their|num- * bers _ be _ but _|small;|
V:2
 c2 c B A2 B c | d c B A ^G2 (AB) | c d e F (^GA) B G | !fermata!A6 z e :| %4
w: Heav'n take the best, and the|De- vil take the rest, and _|so we shall get rid _ of them|all; To|
V:3
 e2 e e e c (de) | (=fe) d c B2 E2 | C2 A,2 E2 E2 | !fermata!A,8 :| %4
w: this hear- ty wish let each _|Man _ take his dish, and|drink, drink, till he|fall.|

